teeny/outline/refresh.svg

<svg width="15" height="15" viewBox="0 0 15 15" fill="none" xmlns="http://www.w3.org/2000/svg">
<path d="M7.5 14.5C3.63401 14.5 0.5 11.366 0.5 7.5C0.5 5.26904 1.54367 3.28183 3.1694 2M7.5 0.5C11.366 0.5 14.5 3.63401 14.5 7.5C14.5 9.73096 13.4563 11.7182 11.8306 13M11.5 10V13.5H15M0 1.5H3.5V5" stroke="black"/>
</svg>

<svg viewBox="0 0 15 15" xmlns="http://www.w3.org/2000/svg"><path fill="none" stroke="#000" d="M7.5 14.5c-3.87 0-7-3.14-7-7C.5 5.26 1.54 3.28 3.16 2M7.49.5c3.86 0 7 3.13 7 7 0 2.23-1.05 4.21-2.67 5.5m-.34-3v3.5h3.5m-15-12h3.5V5"/></svg>
